packages/kaspersky-hexa-ui-icons/src/iconsSVGs/16/OrganizationSolid.svg

<svg width="16" height="16" viewBox="0 0 16 16" fill="none" xmlns="http://www.w3.org/2000/svg">
<path fill-rule="evenodd" clip-rule="evenodd" d="M3 1C2.44772 1 2 1.44772 2 2V14C2 14.5523 2.44772 15 3 15H5.5C6.05228 15 6.5 14.5523 6.5 14V12H9.5V14C9.5 14.5523 9.94772 15 10.5 15H13C13.5523 15 14 14.5523 14 14V2C14 1.44772 13.5523 1 13 1H3ZM6.30586 4.67838C6.30586 4.3194 6.01484 4.02838 5.65586 4.02838C5.29687 4.02838 5.00586 4.3194 5.00586 4.67838V5.34505C5.00586 5.70403 5.29687 5.99505 5.65586 5.99505C6.01484 5.99505 6.30586 5.70403 6.30586 5.34505V4.67838ZM7.99961 4.02838C8.35859 4.02838 8.64961 4.3194 8.64961 4.67838V5.34505C8.64961 5.70403 8.35859 5.99505 7.99961 5.99505C7.64062 5.99505 7.34961 5.70403 7.34961 5.34505V4.67838C7.34961 4.3194 7.64062 4.02838 7.99961 4.02838ZM10.9934 4.67838C10.9934 4.3194 10.7023 4.02838 10.3434 4.02838C9.98437 4.02838 9.69336 4.3194 9.69336 4.67838V5.34505C9.69336 5.70403 9.98437 5.99505 10.3434 5.99505C10.7023 5.99505 10.9934 5.70403 10.9934 5.34505V4.67838ZM5.65586 6.69501C6.01484 6.69501 6.30586 6.98602 6.30586 7.34501V8.01167C6.30586 8.37066 6.01484 8.66167 5.65586 8.66167C5.29687 8.66167 5.00586 8.37066 5.00586 8.01167V7.34501C5.00586 6.98602 5.29687 6.69501 5.65586 6.69501ZM10.3434 6.69501C10.7023 6.69501 10.9934 6.98602 10.9934 7.34501V8.01167C10.9934 8.37066 10.7023 8.66167 10.3434 8.66167C9.98437 8.66167 9.69336 8.37066 9.69336 8.01167V7.34501C9.69336 6.98602 9.98437 6.69501 10.3434 6.69501ZM7.99961 6.69501C8.35859 6.69501 8.64961 6.98602 8.64961 7.34501V8.01167C8.64961 8.37066 8.35859 8.66167 7.99961 8.66167C7.64062 8.66167 7.34961 8.37066 7.34961 8.01167V7.34501C7.34961 6.98602 7.64062 6.69501 7.99961 6.69501Z" fill="black"/>
</svg>

<svg xmlns="http://www.w3.org/2000/svg" width="16" height="16" fill="none" viewBox="0 0 16 16"><path fill="#000" fill-rule="evenodd" d="M3 1c-.5523 0-1 .4477-1 1v12c0 .5523.4477 1 1 1h2.5c.5523 0 1-.4477 1-1v-2h3v2c0 .5523.4477 1 1 1H13c.5523 0 1-.4477 1-1V2c0-.5523-.4477-1-1-1zm3.3059 3.6784a.65.65 0 0 0-1.3 0v.6666a.65.65 0 0 0 1.3 0zm1.6937-.65a.65.65 0 0 1 .65.65v.6666a.65.65 0 0 1-1.3 0v-.6666a.65.65 0 0 1 .65-.65m2.9938.65a.65.65 0 0 0-1.3 0v.6666a.65.65 0 0 0 1.3 0zM5.6559 6.695a.65.65 0 0 1 .65.65v.6667a.65.65 0 0 1-1.3 0V7.345a.65.65 0 0 1 .65-.65m4.6875 0a.65.65 0 0 1 .65.65v.6667a.65.65 0 0 1-1.3 0V7.345a.65.65 0 0 1 .65-.65m-2.3438 0a.65.65 0 0 1 .65.65v.6667a.65.65 0 0 1-1.3 0V7.345a.65.65 0 0 1 .65-.65"/></svg>
